austria/municipalities/40908.svg

<?xml version="1.0" encoding="UTF-8"?>
<!DOCTYPE svg PUBLIC "-//W3C//DTD SVG 1.1//EN" "http://www.w3.org/Graphics/SVG/1.1/DTD/svg11.dtd">
<svg xmlns="http://www.w3.org/2000/svg" version="1.1" width="159px" height="192px" style="shape-rendering:geometricPrecision; text-rendering:geometricPrecision; image-rendering:optimizeQuality; fill-rule:evenodd; clip-rule:evenodd" xmlns:xlink="http://www.w3.org/1999/xlink">
<g><path style="opacity:1" fill="#fdfdfc" d="M -0.5,-0.5 C 0.166667,-0.5 0.833333,-0.5 1.5,-0.5C 1.16806,40.3368 1.50139,81.0034 2.5,121.5C 8.54284,160.541 30.8762,183.874 69.5,191.5C 46.1667,191.5 22.8333,191.5 -0.5,191.5C -0.5,127.5 -0.5,63.5 -0.5,-0.5 Z"/></g>
<g><path style="opacity:1" fill="#fcfcfc" d="M 155.5,-0.5 C 156.5,-0.5 157.5,-0.5 158.5,-0.5C 158.5,63.5 158.5,127.5 158.5,191.5C 134.833,191.5 111.167,191.5 87.5,191.5C 126.498,183.666 148.998,159.999 155,120.5C 155.5,80.5014 155.667,40.5014 155.5,0.5C 155.5,0.166667 155.5,-0.166667 155.5,-0.5 Z"/></g>
<g><path style="opacity:1" fill="#4c4746" d="M 1.5,-0.5 C 52.8333,-0.5 104.167,-0.5 155.5,-0.5C 155.5,-0.166667 155.5,0.166667 155.5,0.5C 104.5,0.5 53.5,0.5 2.5,0.5C 2.5,40.8333 2.5,81.1667 2.5,121.5C 1.50139,81.0034 1.16806,40.3368 1.5,-0.5 Z"/></g>
<g><path style="opacity:1" fill="#060606" d="M 155.5,0.5 C 155.667,40.5014 155.5,80.5014 155,120.5C 148.998,159.999 126.498,183.666 87.5,191.5C 81.5,191.5 75.5,191.5 69.5,191.5C 30.8762,183.874 8.54284,160.541 2.5,121.5C 2.5,81.1667 2.5,40.8333 2.5,0.5C 53.5,0.5 104.5,0.5 155.5,0.5 Z"/></g>
<g><path style="opacity:1" fill="#005f2c" d="M 5.5,3.5 C 29.5,3.5 53.5,3.5 77.5,3.5C 77.5,64.8333 77.5,126.167 77.5,187.5C 38.5923,183.766 14.7589,162.766 6,124.5C 5.50001,84.168 5.33334,43.8347 5.5,3.5 Z"/></g>
<g><path style="opacity:1" fill="#f9f9f9" d="M 79.5,3.5 C 91.1667,3.5 102.833,3.5 114.5,3.5C 114.833,61.8371 114.5,120.17 113.5,178.5C 102.832,184 91.4983,187 79.5,187.5C 79.5,126.167 79.5,64.8333 79.5,3.5 Z"/></g>
<g><path style="opacity:1" fill="#050505" d="M 84.5,9.5 C 89.5508,15.6015 93.0508,22.6015 95,30.5C 105.631,71.8102 110.131,113.81 108.5,156.5C 105.167,156.5 101.833,156.5 98.5,156.5C 98.9439,149.173 99.2772,141.84 99.5,134.5C 95.5,134.5 91.5,134.5 87.5,134.5C 90.5716,102.541 91.0716,70.5406 89,38.5C 87.9066,28.7477 86.4066,19.0811 84.5,9.5 Z"/></g>
<g><path style="opacity:1" fill="#f6f5f5" d="M 143.5,9.5 C 144.376,9.36912 145.043,9.70245 145.5,10.5C 142.814,18.9499 141.314,27.6165 141,36.5C 138.698,69.2175 139.198,101.884 142.5,134.5C 138.5,134.5 134.5,134.5 130.5,134.5C 130.274,141.876 130.608,149.209 131.5,156.5C 128.167,156.5 124.833,156.5 121.5,156.5C 119.192,111.297 124.359,66.9632 137,23.5C 138.921,18.6608 141.088,13.9942 143.5,9.5 Z"/></g>
<g><path style="opacity:1" fill="#181a16" d="M 35.5,7.5 C 39.5,7.5 43.5,7.5 47.5,7.5C 47.5,11.1667 47.5,14.8333 47.5,18.5C 50.8333,18.5 54.1667,18.5 57.5,18.5C 57.5,22.5 57.5,26.5 57.5,30.5C 54.1667,30.5 50.8333,30.5 47.5,30.5C 47.5,33.8333 47.5,37.1667 47.5,40.5C 43.5,40.5 39.5,40.5 35.5,40.5C 35.5,37.1667 35.5,33.8333 35.5,30.5C 32.1667,30.5 28.8333,30.5 25.5,30.5C 25.5,26.5 25.5,22.5 25.5,18.5C 28.8333,18.5 32.1667,18.5 35.5,18.5C 35.5,14.8333 35.5,11.1667 35.5,7.5 Z"/></g>
<g><path style="opacity:1" fill="#efa711" d="M 46.5,19.5 C 49.2869,20.4767 52.2869,20.81 55.5,20.5C 55.5,23.1667 55.5,25.8333 55.5,28.5C 52.1667,28.5 48.8333,28.5 45.5,28.5C 45.5,31.8333 45.5,35.1667 45.5,38.5C 42.8333,38.5 40.1667,38.5 37.5,38.5C 37.5,35.1667 37.5,31.8333 37.5,28.5C 34.1667,28.5 30.8333,28.5 27.5,28.5C 27.5,25.8333 27.5,23.1667 27.5,20.5C 31.0419,20.8128 34.3752,20.4794 37.5,19.5C 37.5,16.1667 37.5,12.8333 37.5,9.5C 40.1667,9.5 42.8333,9.5 45.5,9.5C 45.1872,13.0419 45.5206,16.3752 46.5,19.5 Z"/></g>
<g><path style="opacity:1" fill="#816f57" d="M 37.5,19.5 C 34.3752,20.4794 31.0419,20.8128 27.5,20.5C 27.5,23.1667 27.5,25.8333 27.5,28.5C 26.5233,25.7131 26.19,22.7131 26.5,19.5C 30.1667,19.5 33.8333,19.5 37.5,19.5 Z"/></g>
<g><path style="opacity:1" fill="#6f5f4c" d="M 46.5,19.5 C 49.8333,19.5 53.1667,19.5 56.5,19.5C 56.81,22.7131 56.4767,25.7131 55.5,28.5C 55.5,25.8333 55.5,23.1667 55.5,20.5C 52.2869,20.81 49.2869,20.4767 46.5,19.5 Z"/></g>
<g><path style="opacity:1" fill="#203826" d="M 24.5,45.5 C 35.988,44.5051 47.6547,44.1717 59.5,44.5C 59.5,46.5 59.5,48.5 59.5,50.5C 58.5489,49.0813 58.2155,47.4147 58.5,45.5C 47.1667,45.5 35.8333,45.5 24.5,45.5 Z"/></g>
<g><path style="opacity:1" fill="#1c1b1b" d="M 24.5,45.5 C 35.8333,45.5 47.1667,45.5 58.5,45.5C 58.2155,47.4147 58.5489,49.0813 59.5,50.5C 65.0629,55.984 64.7296,60.984 58.5,65.5C 57.5019,95.9955 57.1685,126.662 57.5,157.5C 47.1667,157.5 36.8333,157.5 26.5,157.5C 26.8332,126.826 26.4998,96.1594 25.5,65.5C 19.4847,61.0448 18.9847,56.0448 24,50.5C 24.4935,48.8659 24.6602,47.1992 24.5,45.5 Z"/></g>
<g><path style="opacity:1" fill="#ebe9e8" d="M 24.5,52.5 C 35.8382,52.3335 47.1716,52.5001 58.5,53C 62.3673,56.2488 62.3673,59.5821 58.5,63C 52.1653,64.5001 49.4987,62.0001 50.5,55.5C 52.5,55.5 54.5,55.5 56.5,55.5C 56.5,56.5 56.5,57.5 56.5,58.5C 55.325,58.281 54.325,58.6143 53.5,59.5C 56.133,60.9985 57.4664,60.1652 57.5,57C 57.6667,54.5 56.5,53.3333 54,53.5C 45.8291,54.8171 37.6624,54.8171 29.5,53.5C 24.4354,55.5186 24.2687,57.8519 29,60.5C 29.5,60.3333 30,60.1667 30.5,60C 28.1367,59.4115 27.1367,57.9115 27.5,55.5C 29.1667,55.5 30.8333,55.5 32.5,55.5C 33.8352,62.3249 31.1685,64.8249 24.5,63C 20.5519,59.4223 20.5519,55.9223 24.5,52.5 Z"/></g>
<g><path style="opacity:1" fill="#e9e7e7" d="M 34.5,55.5 C 39.1667,55.5 43.8333,55.5 48.5,55.5C 48.5,57.5 48.5,59.5 48.5,61.5C 43.8333,61.5 39.1667,61.5 34.5,61.5C 34.5,59.5 34.5,57.5 34.5,55.5 Z"/></g>
<g><path style="opacity:1" fill="#fcfcfc" d="M 26.5,46.5 C 36.8333,46.5 47.1667,46.5 57.5,46.5C 57.5,47.8333 57.5,49.1667 57.5,50.5C 47.1667,50.5 36.8333,50.5 26.5,50.5C 26.5,49.1667 26.5,47.8333 26.5,46.5 Z"/></g>
<g><path style="opacity:1" fill="#fefffe" d="M 34.5,63.5 C 35.8333,63.5 37.1667,63.5 38.5,63.5C 38.5,94.5 38.5,125.5 38.5,156.5C 37.1667,156.5 35.8333,156.5 34.5,156.5C 34.5,125.5 34.5,94.5 34.5,63.5 Z"/></g>
<g><path style="opacity:1" fill="#736d6c" d="M 34.5,63.5 C 35.9187,62.5489 37.5853,62.2155 39.5,62.5C 39.8315,94.0044 39.4982,125.338 38.5,156.5C 38.5,125.5 38.5,94.5 38.5,63.5C 37.1667,63.5 35.8333,63.5 34.5,63.5 Z"/></g>
<g><path style="opacity:1" fill="#fefffe" d="M 40.5,63.5 C 41.8333,63.5 43.1667,63.5 44.5,63.5C 44.5,94.5 44.5,125.5 44.5,156.5C 43.1667,156.5 41.8333,156.5 40.5,156.5C 40.5,125.5 40.5,94.5 40.5,63.5 Z"/></g>
<g><path style="opacity:1" fill="#b4afae" d="M 40.5,63.5 C 41.9187,62.5489 43.5853,62.2155 45.5,62.5C 45.8315,94.0044 45.4982,125.338 44.5,156.5C 44.5,125.5 44.5,94.5 44.5,63.5C 43.1667,63.5 41.8333,63.5 40.5,63.5 Z"/></g>
<g><path style="opacity:1" fill="#b4afae" d="M 49.5,156.5 C 48.8333,32.5 48.1667,32.5 47.5,156.5C 46.5018,125.338 46.1685,94.0044 46.5,62.5C 47.8333,62.5 49.1667,62.5 50.5,62.5C 50.8315,94.0044 50.4982,125.338 49.5,156.5 Z"/></g>
<g><path style="opacity:1" fill="#fefffe" d="M 49.5,156.5 C 48.8333,156.5 48.1667,156.5 47.5,156.5C 48.1667,32.5 48.8333,32.5 49.5,156.5 Z"/></g>
<g><path style="opacity:1" fill="#b4aead" d="M 55.5,65.5 C 54.5,65.5 53.5,65.5 52.5,65.5C 52.5,95.8333 52.5,126.167 52.5,156.5C 51.5019,126.005 51.1685,95.3379 51.5,64.5C 53.099,64.2322 54.4324,64.5655 55.5,65.5 Z"/></g>
<g><path style="opacity:1" fill="#fefefe" d="M 31.5,64.5 C 32.4981,94.9955 32.8315,125.662 32.5,156.5C 31.1667,156.5 29.8333,156.5 28.5,156.5C 28.5,126.167 28.5,95.8333 28.5,65.5C 29.791,65.7373 30.791,65.404 31.5,64.5 Z"/></g>
<g><path style="opacity:1" fill="#efeeee" d="M 55.5,65.5 C 56.4981,95.6621 56.8315,125.995 56.5,156.5C 55.1667,156.5 53.8333,156.5 52.5,156.5C 52.5,126.167 52.5,95.8333 52.5,65.5C 53.5,65.5 54.5,65.5 55.5,65.5 Z"/></g>
<g><path style="opacity:1" fill="#1e472b" d="M 58.5,65.5 C 58.5,96.5 58.5,127.5 58.5,158.5C 47.6536,158.828 36.9869,158.494 26.5,157.5C 36.8333,157.5 47.1667,157.5 57.5,157.5C 57.1685,126.662 57.5019,95.9955 58.5,65.5 Z"/></g>
</svg>

<svg xmlns="http://www.w3.org/2000/svg" width="159" height="192" style="shape-rendering:geometricPrecision;text-rendering:geometricPrecision;image-rendering:optimizeQuality;fill-rule:evenodd;clip-rule:evenodd"><path style="opacity:1" fill="#fdfdfc" d="M-.5-.5h2c-.332 40.837.001 81.503 1 122 6.043 39.041 28.376 62.374 67 70h-70V-.5z"/><path style="opacity:1" fill="#fcfcfc" d="M155.5-.5h3v192h-71c38.998-7.834 61.498-31.501 67.5-71 .5-39.999.667-79.999.5-120v-1z"/><path style="opacity:1" fill="#4c4746" d="M1.5-.5h154v1H2.5v121a3721.595 3721.595 0 0 1-1-122z"/><path style="opacity:1" fill="#060606" d="M155.5.5c.167 40.001 0 80.001-.5 120-6.002 39.499-28.502 63.166-67.5 71h-18c-38.624-7.626-60.957-30.959-67-70V.5h153z"/><path style="opacity:1" fill="#005f2c" d="M5.5 3.5h72v184c-38.908-3.734-62.741-24.734-71.5-63-.5-40.332-.667-80.665-.5-121z"/><path style="opacity:1" fill="#f9f9f9" d="M79.5 3.5h35c.333 58.337 0 116.67-1 175-10.668 5.5-22.002 8.5-34 9V3.5z"/><path style="opacity:1" fill="#050505" d="M84.5 9.5c5.05 6.101 8.55 13.102 10.5 21 10.631 41.31 15.131 83.31 13.5 126h-10c.444-7.327.777-14.66 1-22h-12a598.329 598.329 0 0 0 1.5-96 346.108 346.108 0 0 0-4.5-29z"/><path style="opacity:1" fill="#f6f5f5" d="M143.5 9.5c.876-.13 1.543.202 2 1a96.704 96.704 0 0 0-4.5 26 572.352 572.352 0 0 0 1.5 98h-12a144.464 144.464 0 0 0 1 22h-10c-2.308-45.203 2.859-89.537 15.5-133a134.57 134.57 0 0 1 6.5-14z"/><path style="opacity:1" fill="#181a16" d="M35.5 7.5h12v11h10v12h-10v10h-12v-10h-10v-12h10v-11z"/><path style="opacity:1" fill="#efa711" d="M46.5 19.5c2.787.977 5.787 1.31 9 1v8h-10v10h-8v-10h-10v-8c3.542.313 6.875-.02 10-1v-10h8c-.313 3.542.02 6.875 1 10z"/><path style="opacity:1" fill="#816f57" d="M37.5 19.5c-3.125.98-6.458 1.313-10 1v8c-.977-2.787-1.31-5.787-1-9h11z"/><path style="opacity:1" fill="#6f5f4c" d="M46.5 19.5h10c.31 3.213-.023 6.213-1 9v-8c-3.213.31-6.213-.023-9-1z"/><path style="opacity:1" fill="#203826" d="M24.5 45.5c11.488-.995 23.155-1.328 35-1v6c-.951-1.419-1.285-3.085-1-5h-34z"/><path style="opacity:1" fill="#1c1b1b" d="M24.5 45.5h34c-.285 1.915.049 3.581 1 5 5.563 5.484 5.23 10.484-1 15a2116.627 2116.627 0 0 0-1 92h-31c.333-30.674 0-61.34-1-92-6.015-4.455-6.515-9.455-1.5-15 .494-1.634.66-3.3.5-5z"/><path style="opacity:1" fill="#ebe9e8" d="M24.5 52.5c11.338-.166 22.672 0 34 .5 3.867 3.249 3.867 6.582 0 10-6.335 1.5-9.001-1-8-7.5h6v3c-1.175-.219-2.175.114-3 1 2.633 1.498 3.966.665 4-2.5.167-2.5-1-3.667-3.5-3.5a76.45 76.45 0 0 1-24.5 0c-5.065 2.019-5.231 4.352-.5 7l1.5-.5c-2.363-.589-3.363-2.089-3-4.5h5c1.335 6.825-1.331 9.325-8 7.5-3.948-3.578-3.948-7.078 0-10.5z"/><path style="opacity:1" fill="#e9e7e7" d="M34.5 55.5h14v6h-14v-6z"/><path style="opacity:1" fill="#fcfcfc" d="M26.5 46.5h31v4h-31v-4z"/><path style="opacity:1" fill="#fefffe" d="M34.5 63.5h4v93h-4v-93z"/><path style="opacity:1" fill="#736d6c" d="M34.5 63.5c1.419-.951 3.085-1.285 5-1 .331 31.504-.002 62.838-1 94v-93h-4z"/><path style="opacity:1" fill="#fefffe" d="M40.5 63.5h4v93h-4v-93z"/><path style="opacity:1" fill="#b4afae" d="M40.5 63.5c1.419-.951 3.085-1.285 5-1 .331 31.504-.002 62.838-1 94v-93h-4zM49.5 156.5c-.667-124-1.333-124-2 0a2209.595 2209.595 0 0 1-1-94h4c.331 31.504-.002 62.838-1 94z"/><path style="opacity:1" fill="#fefffe" d="M49.5 156.5h-2c.667-124 1.333-124 2 0z"/><path style="opacity:1" fill="#b4aead" d="M55.5 65.5h-3v91a2116.62 2116.62 0 0 1-1-92c1.599-.268 2.932.066 4 1z"/><path style="opacity:1" fill="#fefefe" d="M31.5 64.5a2116.627 2116.627 0 0 1 1 92h-4v-91c1.291.237 2.291-.096 3-1z"/><path style="opacity:1" fill="#efeeee" d="M55.5 65.5a2070.806 2070.806 0 0 1 1 91h-4v-91h3z"/><path style="opacity:1" fill="#1e472b" d="M58.5 65.5v93c-10.846.328-21.513-.006-32-1h31c-.331-30.838.002-61.504 1-92z"/></svg>
